Newaita-dark/devices/22/media-flash-cf.svg

<svg height="22pt" viewBox="0 0 22 22" width="22pt" xmlns="http://www.w3.org/2000/svg" xmlns:xlink="http://www.w3.org/1999/xlink"><linearGradient id="a" gradientUnits="userSpaceOnUse" x1="10.9151146" x2="10.9151146" y1="19.23777215" y2="20.14736534324"><stop offset="0" stop-opacity=".27451"/><stop offset="1" stop-opacity="0"/></linearGradient><linearGradient id="b"><stop offset="0" stop-opacity=".313725"/><stop offset=".222222" stop-opacity=".27451"/><stop offset="1" stop-opacity="0"/></linearGradient><radialGradient id="c" cx="450.90894" cy="189.57936" gradientTransform="matrix(.00000012 -.0537161 -.0966889 -.00000007 34.70283 43.686228)" gradientUnits="userSpaceOnUse" r="21.166656" xlink:href="#b"/><radialGradient id="d" cx="450.90894" cy="189.57936" gradientTransform="matrix(-.00000012 .0537161 .0966889 .00000007 -12.872621 -5.210706)" gradientUnits="userSpaceOnUse" r="21.166656" xlink:href="#b"/><radialGradient id="e" cx="450.90894" cy="189.57936" gradientTransform="matrix(-.00000012 -.0537161 .0966889 -.00000007 -12.872621 43.686228)" gradientUnits="userSpaceOnUse" r="21.166656" xlink:href="#b"/><radialGradient id="f" cx="450.90894" cy="189.57936" gradientTransform="matrix(.00000012 .0537161 -.0966889 .00000007 34.702829 -5.210707)" gradientUnits="userSpaceOnUse" r="21.166656" xlink:href="#b"/><linearGradient id="g" gradientUnits="userSpaceOnUse" x1="10.9151166" x2="10.9151166" y1="19.27333515" y2="1.99106705676"><stop offset="0" stop-color="#424242"/><stop offset="1" stop-color="#616161"/></linearGradient><linearGradient id="h" gradientUnits="userSpaceOnUse" x1="10.9151166" x2="10.9151166" y1="19.27333515" y2="1.99106705676"><stop offset="0" stop-color="#bdbdbd"/><stop offset="1" stop-color="#e0e0e0"/></linearGradient><linearGradient id="i" gradientUnits="userSpaceOnUse" x1="9.09593064324" x2="9.09593064324" y1="19.27333515" y2="1.99106705676"><stop offset="0" stop-color="#f44336"/><stop offset="1" stop-color="#ef5350"/></linearGradient><linearGradient id="j" gradientUnits="userSpaceOnUse" x1="10.9151166" x2="10.9151166" y1="19.27333515" y2="1.99106705676"><stop offset="0" stop-color="#ffca28"/><stop offset="1" stop-color="#ffd54f"/></linearGradient><path d="m5.230469 19.253906h11.371093v.929688h-11.371093zm0 0" fill="url(#a)"/><path d="m16.601562 19.238281h1.816407v-.910156h-1.816407zm0 0" fill="url(#c)"/><path d="m5.230469 19.238281h-1.820313v.910157h1.820313zm0 0" fill="url(#d)"/><path d="m5.230469 19.238281h-1.820313v-.910156h1.820313zm0 0" fill="url(#e)"/><path d="m16.601562 19.238281h1.816407v.910157h-1.816407zm0 0" fill="url(#f)"/><path d="m4.546875 1.992188h12.734375c.503906 0 .910156.40625.910156.910156v15.460937c0 .503907-.40625.910157-.910156.910157h-12.734375c-.5 0-.910156-.40625-.910156-.910157v-15.460937c0-.503906.410156-.910156.910156-.910156zm0 0" fill="url(#g)"/><path d="m10.914062 2.90625c-.238281 0-.46875.09375-.640624.265625l-.1875.1875h-4.628907c-.5 0-.90625.40625-.90625.90625v12.734375c0 .5.40625.90625.90625.90625h4.628907l.1875.1875c.171874.171875.402343.265625.640624.265625h5.457032c.5 0 .90625-.40625.90625-.90625v-13.644531c0-.5-.40625-.902344-.90625-.902344zm0 0" fill="url(#h)"/><path d="m6.820312 3.355469h3.183594v14.554687h-3.183594zm0 0" fill="url(#i)"/><path d="m5.457031 3.359375c-.5 0-.90625.40625-.90625.90625v12.734375c0 .5.40625.90625.90625.90625h1.363281v-14.546875zm0 0" fill="url(#j)"/><g fill="none" stroke="#212121" stroke-linecap="round" stroke-linejoin="round"><path d="m253.975747-147.370095c-5.544926 0-10.90805 2.18161-14.907668 6.181228l-4.363219 4.36322h-107.716987c-11.635252 0-21.088895 9.453643-21.088895 21.088895v296.335338c0 11.635252 9.453643 21.088895 21.088895 21.088895h107.716987l4.363219 4.36322c3.999618 3.999618 9.362742 6.181228 14.907668 6.181228h126.987873c11.635252 0 21.088895-9.453643 21.088895-21.088896v-317.515133c0-11.635252-9.453643-20.997995-21.088895-20.997995zm0 0" stroke-width="3" transform="matrix(.0429729 0 0 .0429729 0 9.239163)"/><path d="m158.712116-136.916548h74.083835v338.694929h-74.083835zm0 0" stroke-width="3" transform="matrix(.0429729 0 0 .0429729 0 9.239163)"/><path d="m479.954173 295.462125c-43.975758 0-79.706062 35.730303-79.706062 79.706062v1120.007589c0 43.975759 35.730304 79.706062 79.706062 79.706062h119.902653v-1279.419713zm0 0" stroke-width="11.338583" transform="scale(.0113699)"/></g><path d="m4.546875 1.992188c-.503906 0-.910156.40625-.910156.910156v.226562c0-.503906.40625-.910156.910156-.910156h12.734375c.503906 0 .910156.40625.910156.910156v-.226562c0-.503906-.40625-.910156-.910156-.910156zm0 0" fill="#fff" fill-opacity=".313725"/><path d="m3.636719 18.023438v.339843c0 .503907.40625.910157.910156.910157h12.734375c.503906 0 .910156-.40625.910156-.910157v-.339843c0 .503906-.40625.910156-.910156.910156h-12.734375c-.503906 0-.910156-.40625-.910156-.910156zm0 0" fill-opacity=".235294"/><path d="m105.808078-168.640791h296.335337c11.726153 0 21.179796 9.453643 21.179796 21.179796v359.783824c0 11.726153-9.453643 21.179796-21.179796 21.179796h-296.335337c-11.635253 0-21.179796-9.453643-21.179796-21.179796v-359.783824c0-11.726153 9.544543-21.179796 21.179796-21.179796zm0 0" fill="none" stroke="#212121" stroke-linecap="round" stroke-linejoin="round" stroke-width="3" transform="matrix(.0429729 0 0 .0429729 0 9.239163)"/></svg>

<?xml version="1.0" encoding="UTF-8"?>
<svg xmlns="http://www.w3.org/2000/svg" xmlns:xlink="http://www.w3.org/1999/xlink" width="22pt" height="22pt" viewBox="0 0 22 22" version="1.1">
<defs>
<linearGradient id="linear0" gradientUnits="userSpaceOnUse" x1="254" y1="233.5" x2="254" y2="254.66667" gradientTransform="matrix(0.0429729,0,0,0.0429729,-0.00000171891,9.2036)">
<stop offset="0" style="stop-color:rgb(0%,0%,0%);stop-opacity:0.27451;"/>
<stop offset="1" style="stop-color:rgb(0%,0%,0%);stop-opacity:0;"/>
</linearGradient>
<radialGradient id="radial0" gradientUnits="userSpaceOnUse" cx="450.90894" cy="189.57936" fx="450.90894" fy="189.57936" r="21.166656" gradientTransform="matrix(0.000000119742,-0.0537161,-0.0966889,-0.0000000698078,34.70283,43.686228)">
<stop offset="0" style="stop-color:rgb(0%,0%,0%);stop-opacity:0.313725;"/>
<stop offset="0.222222" style="stop-color:rgb(0%,0%,0%);stop-opacity:0.27451;"/>
<stop offset="1" style="stop-color:rgb(0%,0%,0%);stop-opacity:0;"/>
</radialGradient>
<radialGradient id="radial1" gradientUnits="userSpaceOnUse" cx="450.90894" cy="189.57936" fx="450.90894" fy="189.57936" r="21.166656" gradientTransform="matrix(-0.000000119742,0.0537161,0.0966889,0.0000000698078,-12.872621,-5.210706)">
<stop offset="0" style="stop-color:rgb(0%,0%,0%);stop-opacity:0.313725;"/>
<stop offset="0.222222" style="stop-color:rgb(0%,0%,0%);stop-opacity:0.27451;"/>
<stop offset="1" style="stop-color:rgb(0%,0%,0%);stop-opacity:0;"/>
</radialGradient>
<radialGradient id="radial2" gradientUnits="userSpaceOnUse" cx="450.90894" cy="189.57936" fx="450.90894" fy="189.57936" r="21.166656" gradientTransform="matrix(-0.000000119742,-0.0537161,0.0966889,-0.0000000698078,-12.872621,43.686228)">
<stop offset="0" style="stop-color:rgb(0%,0%,0%);stop-opacity:0.313725;"/>
<stop offset="0.222222" style="stop-color:rgb(0%,0%,0%);stop-opacity:0.27451;"/>
<stop offset="1" style="stop-color:rgb(0%,0%,0%);stop-opacity:0;"/>
</radialGradient>
<radialGradient id="radial3" gradientUnits="userSpaceOnUse" cx="450.90894" cy="189.57936" fx="450.90894" fy="189.57936" r="21.166656" gradientTransform="matrix(0.000000119742,0.0537161,-0.0966889,0.0000000698078,34.702829,-5.210707)">
<stop offset="0" style="stop-color:rgb(0%,0%,0%);stop-opacity:0.313725;"/>
<stop offset="0.222222" style="stop-color:rgb(0%,0%,0%);stop-opacity:0.27451;"/>
<stop offset="1" style="stop-color:rgb(0%,0%,0%);stop-opacity:0;"/>
</radialGradient>
<linearGradient id="linear1" gradientUnits="userSpaceOnUse" x1="254" y1="233.5" x2="254" y2="-168.66667" gradientTransform="matrix(0.0429729,0,0,0.0429729,0,9.239163)">
<stop offset="0" style="stop-color:rgb(25.882353%,25.882353%,25.882353%);stop-opacity:1;"/>
<stop offset="1" style="stop-color:rgb(38.039216%,38.039216%,38.039216%);stop-opacity:1;"/>
</linearGradient>
<linearGradient id="linear2" gradientUnits="userSpaceOnUse" x1="254" y1="233.5" x2="254" y2="-168.66667" gradientTransform="matrix(0.0429729,0,0,0.0429729,0,9.239163)">
<stop offset="0" style="stop-color:rgb(74.117647%,74.117647%,74.117647%);stop-opacity:1;"/>
<stop offset="1" style="stop-color:rgb(87.843137%,87.843137%,87.843137%);stop-opacity:1;"/>
</linearGradient>
<linearGradient id="linear3" gradientUnits="userSpaceOnUse" x1="211.66667" y1="233.5" x2="211.66667" y2="-168.66667" gradientTransform="matrix(0.0429729,0,0,0.0429729,0,9.239163)">
<stop offset="0" style="stop-color:rgb(95.686275%,26.27451%,21.176471%);stop-opacity:1;"/>
<stop offset="1" style="stop-color:rgb(93.72549%,32.54902%,31.372549%);stop-opacity:1;"/>
</linearGradient>
<linearGradient id="linear4" gradientUnits="userSpaceOnUse" x1="254" y1="233.5" x2="254" y2="-168.66667" gradientTransform="matrix(0.0429729,0,0,0.0429729,0,9.239163)">
<stop offset="0" style="stop-color:rgb(100%,79.215686%,15.686275%);stop-opacity:1;"/>
<stop offset="1" style="stop-color:rgb(100%,83.529412%,30.980392%);stop-opacity:1;"/>
</linearGradient>
</defs>
<g id="surface1">
<path style=" stroke:none;fill-rule:nonzero;fill:url(#linear0);" d="M 5.230469 19.253906 L 16.601562 19.253906 L 16.601562 20.183594 L 5.230469 20.183594 Z M 5.230469 19.253906 "/>
<path style=" stroke:none;fill-rule:nonzero;fill:url(#radial0);" d="M 16.601562 19.238281 L 18.417969 19.238281 L 18.417969 18.328125 L 16.601562 18.328125 Z M 16.601562 19.238281 "/>
<path style=" stroke:none;fill-rule:nonzero;fill:url(#radial1);" d="M 5.230469 19.238281 L 3.410156 19.238281 L 3.410156 20.148438 L 5.230469 20.148438 Z M 5.230469 19.238281 "/>
<path style=" stroke:none;fill-rule:nonzero;fill:url(#radial2);" d="M 5.230469 19.238281 L 3.410156 19.238281 L 3.410156 18.328125 L 5.230469 18.328125 Z M 5.230469 19.238281 "/>
<path style=" stroke:none;fill-rule:nonzero;fill:url(#radial3);" d="M 16.601562 19.238281 L 18.417969 19.238281 L 18.417969 20.148438 L 16.601562 20.148438 Z M 16.601562 19.238281 "/>
<path style=" stroke:none;fill-rule:nonzero;fill:url(#linear1);" d="M 4.546875 1.992188 L 17.28125 1.992188 C 17.785156 1.992188 18.191406 2.398438 18.191406 2.902344 L 18.191406 18.363281 C 18.191406 18.867188 17.785156 19.273438 17.28125 19.273438 L 4.546875 19.273438 C 4.046875 19.273438 3.636719 18.867188 3.636719 18.363281 L 3.636719 2.902344 C 3.636719 2.398438 4.046875 1.992188 4.546875 1.992188 Z M 4.546875 1.992188 "/>
<path style=" stroke:none;fill-rule:nonzero;fill:url(#linear2);" d="M 10.914062 2.90625 C 10.675781 2.90625 10.445312 3 10.273438 3.171875 L 10.085938 3.359375 L 5.457031 3.359375 C 4.957031 3.359375 4.550781 3.765625 4.550781 4.265625 L 4.550781 17 C 4.550781 17.5 4.957031 17.90625 5.457031 17.90625 L 10.085938 17.90625 L 10.273438 18.09375 C 10.445312 18.265625 10.675781 18.359375 10.914062 18.359375 L 16.371094 18.359375 C 16.871094 18.359375 17.277344 17.953125 17.277344 17.453125 L 17.277344 3.808594 C 17.277344 3.308594 16.871094 2.90625 16.371094 2.90625 Z M 10.914062 2.90625 "/>
<path style=" stroke:none;fill-rule:nonzero;fill:url(#linear3);" d="M 6.820312 3.355469 L 10.003906 3.355469 L 10.003906 17.910156 L 6.820312 17.910156 Z M 6.820312 3.355469 "/>
<path style=" stroke:none;fill-rule:nonzero;fill:url(#linear4);" d="M 5.457031 3.359375 C 4.957031 3.359375 4.550781 3.765625 4.550781 4.265625 L 4.550781 17 C 4.550781 17.5 4.957031 17.90625 5.457031 17.90625 L 6.820312 17.90625 L 6.820312 3.359375 Z M 5.457031 3.359375 "/>
<path style="fill:none;stroke-width:3;stroke-linecap:round;stroke-linejoin:round;stroke:rgb(12.941176%,12.941176%,12.941176%);stroke-opacity:1;stroke-miterlimit:4;" d="M 253.975747 -147.370095 C 248.430821 -147.370095 243.067697 -145.188485 239.068079 -141.188867 L 234.70486 -136.825647 L 126.987873 -136.825647 C 115.352621 -136.825647 105.898978 -127.372004 105.898978 -115.736752 L 105.898978 180.598586 C 105.898978 192.233838 115.352621 201.687481 126.987873 201.687481 L 234.70486 201.687481 L 239.068079 206.050701 C 243.067697 210.050319 248.430821 212.231929 253.975747 212.231929 L 380.96362 212.231929 C 392.598872 212.231929 402.052515 202.778286 402.052515 191.143033 L 402.052515 -126.3721 C 402.052515 -138.007352 392.598872 -147.370095 380.96362 -147.370095 Z M 253.975747 -147.370095 " transform="matrix(0.0429729,0,0,0.0429729,0,9.239163)"/>
<path style="fill:none;stroke-width:3;stroke-linecap:round;stroke-linejoin:round;stroke:rgb(12.941176%,12.941176%,12.941176%);stroke-opacity:1;stroke-miterlimit:4;" d="M 158.712116 -136.916548 L 232.795951 -136.916548 L 232.795951 201.778381 L 158.712116 201.778381 Z M 158.712116 -136.916548 " transform="matrix(0.0429729,0,0,0.0429729,0,9.239163)"/>
<path style="fill:none;stroke-width:11.338583;stroke-linecap:round;stroke-linejoin:round;stroke:rgb(12.941176%,12.941176%,12.941176%);stroke-opacity:1;stroke-miterlimit:4;" d="M 479.954173 295.462125 C 435.978415 295.462125 400.248111 331.192428 400.248111 375.168187 L 400.248111 1495.175776 C 400.248111 1539.151535 435.978415 1574.881838 479.954173 1574.881838 L 599.856826 1574.881838 L 599.856826 295.462125 Z M 479.954173 295.462125 " transform="matrix(0.0113699,0,0,0.0113699,0,0)"/>
<path style=" stroke:none;fill-rule:nonzero;fill:rgb(100%,100%,100%);fill-opacity:0.313725;" d="M 4.546875 1.992188 C 4.042969 1.992188 3.636719 2.398438 3.636719 2.902344 L 3.636719 3.128906 C 3.636719 2.625 4.042969 2.21875 4.546875 2.21875 L 17.28125 2.21875 C 17.785156 2.21875 18.191406 2.625 18.191406 3.128906 L 18.191406 2.902344 C 18.191406 2.398438 17.785156 1.992188 17.28125 1.992188 Z M 4.546875 1.992188 "/>
<path style=" stroke:none;fill-rule:nonzero;fill:rgb(0%,0%,0%);fill-opacity:0.235294;" d="M 3.636719 18.023438 L 3.636719 18.363281 C 3.636719 18.867188 4.042969 19.273438 4.546875 19.273438 L 17.28125 19.273438 C 17.785156 19.273438 18.191406 18.867188 18.191406 18.363281 L 18.191406 18.023438 C 18.191406 18.527344 17.785156 18.933594 17.28125 18.933594 L 4.546875 18.933594 C 4.042969 18.933594 3.636719 18.527344 3.636719 18.023438 Z M 3.636719 18.023438 "/>
<path style="fill:none;stroke-width:3;stroke-linecap:round;stroke-linejoin:round;stroke:rgb(12.941176%,12.941176%,12.941176%);stroke-opacity:1;stroke-miterlimit:4;" d="M 105.808078 -168.640791 L 402.143415 -168.640791 C 413.869568 -168.640791 423.323211 -159.187148 423.323211 -147.460995 L 423.323211 212.322829 C 423.323211 224.048982 413.869568 233.502625 402.143415 233.502625 L 105.808078 233.502625 C 94.172825 233.502625 84.628282 224.048982 84.628282 212.322829 L 84.628282 -147.460995 C 84.628282 -159.187148 94.172825 -168.640791 105.808078 -168.640791 Z M 105.808078 -168.640791 " transform="matrix(0.0429729,0,0,0.0429729,0,9.239163)"/>
</g>
</svg>
